X: 38612
T: Stoney Steps, The
R: reel
M: 4/4
K: Dmajor
|:dB|~A2AB AF~F2|ABdf edBA|FA~A2 BAGF|GFEG FD:|
de|fedc defg|afbf afeg|fded fded|BdAF E2de|
fedc defg|afbf afeg|~f2fa e2de|fgaf ef|

